X: 1543
T: High Low Loopy
B: australian traditional tunes wiki
M:4/4
L:1/8
R: Reel
Q: 1/4=100
K:G
V:1 
|"D"A,>B, CD"C"E2E2|ED B,D"G"B2B2|"D7"Bc AF Dc BA|"G"GA BG "C"E2"D"D2|
|"D"A,>B, CD"C"E2E2|ED B,D"G"B2B2|"D7"Bc AF Dc BA|"G"G2B2 G2Bc||!
"G"(3ded BGD2d2|(3ded BGD2D2|"D"DE FG AB cd|"C"ed d^c"D"d2Bc|
"G"(3ded BGD2d2|(3ded BGD2D2|"D"DE FG Ac BA|"G"G2B2G4||
% abcbook-tune_id 6342d53a930b74341b36f4ff


% abcbook-boost 0
% abcbook-tablature 
% abcbook-transpose 
% abcbook-lastupdated 1665324370249
% abcbook-soundfonts 
% abcbook-repeats 1
% NFF Book 2015

